X:1
T:We Shall See the King Some Day
T:We Shall See the King Some Day
T:Lewis Edgar Jones
T:Lewis Edgar Jones, 1906
T:Public Domain Courtesy of the Cyber Hymnal™
T:Public Domain Courtesy of the Cyber Hymnal™
C:Lewis Edgar Jones
Z:Public Domain
Z:Courtesy of the Cyber Hymnal™
%%score ( 1 2 ) ( 3 4 )
L:1/8
Q:1/4=105
M:4/4
K:Db
V:1 treble 
V:2 treble 
V:3 bass 
V:4 bass 
V:1
 [FA]>[GB] [FA]>[EG] [DF]2 [FA]2 | [FA]>[EG] [EG]>[=DF] [EG]4 | [Gc]>[G=B] [Gc]>[G_B] A2 [GB]2 | %3
w: 1.~Though the way we jour- ney|may be oft- en drear,|We shall see the King some|
w: 2.~Af- ter pain and an- guish,|af- ter toil and care,|We shall see the King some|
w: 3.~Af- ter foes are con- quered,|af- ter bat- tles won,|We shall see the King some|
w: 4.~There with all the loved ones|who have gone be- fore,|We shall see the King some|
 A6 x2 | [FA]>[GB] [FA]>[EG] [DF]2 [FA]2 | [Dd]>[De] [Dd]>[Ac] [GB]4 | %6
w: day;|On that bless- èd morn- ing|clouds will dis- ap- pear;|
w: day;|Through the end- less ag- es|joy and bless- ing share,|
w: day;|Af- ter strife is o- ver,|a- fter set of sun,|
w: day;|Sor- row past for- ev- er,|on that peace- ful shore,|
 [Gc]>[G=B] [Gc]>[G_B] A2 [Ge]2 | [Fd]6 z2 ||"^Refrain" [DF]>[EG] [FA]>[GB] [FA]2 [Fd]2 | c6 x2 | %10
w: We shall see the King some|day.|||
w: We shall see the King some|day.|||
w: We shall see the King some|day.|||
w: We shall see the King some|day.|||
 [CE]>[DF] [EG]>[FA] [GB]2 [Gc]2 | B6 x2 | [Fd]>[Ge] [Fd]>[GB] [FA]2 [DF]2 | %13
w: |||
w: |||
w: |||
w: |||
 [DB]>[DB] [DB]>[Dc] [Gd]4 | [Gc]>[G=B] [Gc]>[G_B] [GA]2 [Ge]2 | [Fd]6 z2 |] %16
w: |||
w: |||
w: |||
w: |||
V:2
 x8 | x8 | x4 G2 x2 | (F2 DE F4) | x8 | x8 | x4 G2 x2 | x8 || x8 | (G2 G2 G4) | x8 | (F2 DE F4) | %12
 x8 | x8 | x8 | x8 |] %16
V:3
 [D,D]>[D,D] [D,D]>[D,A,] [D,A,]2 [D,D]2 | [A,,D]>[A,,A,] [A,,A,]>[A,,A,] [A,,C]4 | %2
w: ~ ~ ~ ~ ~ ~|~ ~ ~ ~ ~|
 A,>A, [A,E]>[A,D] [A,C]2 [A,,C]2 | ([D,D]2 F,A, [D,D]4) | %4
w: ~ ~ ~ ~ ~ ~|~ * * *|
 [D,D]>[D,D] [D,D]>[D,A,] [D,A,]2 [D,D]2 | [F,A,]>[F,A,] [F,A,]>[F,D] [G,D]4 | %6
w: ~ ~ ~ ~ ~ ~|~ ~ ~ ~ ~|
 A,>A, [A,E]>[A,D] [A,C]2 [A,,A,]2 | [D,A,]6 z2 || [D,A,]>[D,A,] [D,D]>[D,D] [D,D]2 [D,A,]2 | %9
w: ~ ~ ~ ~ ~ ~|~|We shall see the King some|
 ([E,A,]2 [E,A,]2 [A,E]4) | [A,,A,]>[A,,A,] [A,,A,]>[A,,A,] [A,,C]2 [A,,E]2 | %11
w: day, * *|When the clouds have rolled a-|
 ([D,D]2 F,A, [D,D]4) | [D,A,]>[D,A,] [D,A,]>[D,C] [D,D]2 [D,A,]2 | G,>G, G,>[G,A,] [G,B,]4 | %14
w: way; * * *|Ga- thered ’round the throne, When|He shall call His own,|
 A,>A, [A,E]>[A,D] [A,C]2 [A,,A,]2 | [D,A,]6 z2 |] %16
w: We shall see the King some|day.|
V:4
 x8 | x8 | x8 | x2 D,2 x4 | x8 | x8 | A,>A, x6 | x8 || x8 | x8 | x8 | x2 D,2 x4 | x8 | %13
 G,>G, G,3/2 x9/2 | A,>A, x6 | x8 |] %16

